public/socials/telegram.svg

<svg xmlns="http://www.w3.org/2000/svg" viewBox="0 0 640 640"><path fill="#a7a7a8" d="M320 72C183 72 72 183 72 320s111 248 248 248 248-111 248-248S457 72 320 72m115 168.7c-3.7 39.2-19.9 134.4-28.1 178.3-3.5 18.6-10.3 24.8-16.9 25.4-14.4 1.3-25.3-9.5-39.3-18.7-21.8-14.3-34.2-23.2-55.3-37.2-24.5-16.1-8.6-25 5.3-39.5 3.7-3.8 67.1-61.5 68.3-66.7.2-.7.3-3.1-1.2-4.4s-3.6-.8-5.1-.5c-2.2.5-37.1 23.5-104.6 69.1-9.9 6.8-18.9 10.1-26.9 9.9-8.9-.2-25.9-5-38.6-9.1-15.5-5-27.9-7.7-26.8-16.3.6-4.5 6.7-9 18.4-13.7 72.3-31.5 120.5-52.3 144.6-62.3 68.9-28.6 83.2-33.6 92.5-33.8 2.1 0 6.6.5 9.6 2.9 2 1.7 3.2 4.1 3.5 6.7.5 3.2.6 6.5.4 9.8z"/></svg>

<svg xmlns="http://www.w3.org/2000/svg" viewBox="0 0 640 640"><!--!Font Awesome Free 7.2.0 by @fontawesome - https://fontawesome.com License - https://fontawesome.com/license/free Copyright 2026 Fonticons, Inc.--><path fill="#a7a7a8" d="M320 72C183 72 72 183 72 320C72 457 183 568 320 568C457 568 568 457 568 320C568 183 457 72 320 72zM435 240.7C431.3 279.9 415.1 375.1 406.9 419C403.4 437.6 396.6 443.8 390 444.4C375.6 445.7 364.7 434.9 350.7 425.7C328.9 411.4 316.5 402.5 295.4 388.5C270.9 372.4 286.8 363.5 300.7 349C304.4 345.2 367.8 287.5 369 282.3C369.2 281.6 369.3 279.2 367.8 277.9C366.3 276.6 364.2 277.1 362.7 277.4C360.5 277.9 325.6 300.9 258.1 346.5C248.2 353.3 239.2 356.6 231.2 356.4C222.3 356.2 205.3 351.4 192.6 347.3C177.1 342.3 164.7 339.6 165.8 331C166.4 326.5 172.5 322 184.2 317.3C256.5 285.8 304.7 265 328.8 255C397.7 226.4 412 221.4 421.3 221.2C423.4 221.2 427.9 221.7 430.9 224.1C432.9 225.8 434.1 228.2 434.4 230.8C434.9 234 435 237.3 434.8 240.6z"/></svg>
